X:225
T: Die verkaufte Muellerin
N: Q0086X
O: Mitteleuropa, Deutschland (DDR) , Sachsen, Altmark
R: Ballade, Menschenhandel, Rettung, Hinrichtung
M: 3/4
L: 1/8
K: G
G | GBd3B | BAA2z
A | Aee3d | cBB2z
G | GBd3B | cee2z
g | fed3B | cAG2z

